svgs/light/face-smile-plus.svg

<svg xmlns="http://www.w3.org/2000/svg" viewBox="0 0 640 512"><!--! Font Awesome Pro 6.4.0 by @fontawesome - https://fontawesome.com License - https://fontawesome.com/license (Commercial License) Copyright 2023 Fonticons, Inc. --><path d="M560 16V80h64c8.8 0 16 7.2 16 16s-7.2 16-16 16H560v64c0 8.8-7.2 16-16 16s-16-7.2-16-16V112H464c-8.8 0-16-7.2-16-16s7.2-16 16-16h64V16c0-8.8 7.2-16 16-16s16 7.2 16 16zM416 288A192 192 0 1 0 32 288a192 192 0 1 0 384 0zM0 288a224 224 0 1 1 448 0A224 224 0 1 1 0 288zm144.4-72a24 24 0 1 1 0 48 24 24 0 1 1 0-48zm136 24a24 24 0 1 1 48 0 24 24 0 1 1 -48 0zM126.9 330.1c4.5 11.2 15.1 29.1 31.8 44C175.1 388.7 196.8 400 224 400s48.9-11.3 65.3-25.9c16.7-14.9 27.3-32.8 31.8-44c3.3-8.2 12.6-12.2 20.8-8.9s12.2 12.6 8.9 20.8c-6.2 15.4-19.5 37.5-40.2 56C289.8 416.6 260.8 432 224 432s-65.8-15.4-86.7-34.1c-20.7-18.5-34-40.6-40.2-56c-3.3-8.2 .7-17.5 8.9-20.8s17.5 .7 20.8 8.9z"/></svg>

<svg xmlns="http://www.w3.org/2000/svg" viewBox="0 0 640 512"><!--! Font Awesome Pro 6.3.0 by @fontawesome - https://fontawesome.com License - https://fontawesome.com/license (Commercial License) Copyright 2023 Fonticons, Inc. --><path d="M560 80H624C632.8 80 640 87.16 640 96C640 104.8 632.8 112 624 112H560V176C560 184.8 552.8 192 544 192C535.2 192 528 184.8 528 176V112H464C455.2 112 448 104.8 448 96C448 87.16 455.2 80 464 80H528V16C528 7.164 535.2 0 544 0C552.8 0 560 7.164 560 16V80zM120.4 240C120.4 226.7 131.1 216 144.4 216C157.6 216 168.4 226.7 168.4 240C168.4 253.3 157.6 264 144.4 264C131.1 264 120.4 253.3 120.4 240V240zM328.4 240C328.4 253.3 317.6 264 304.4 264C291.1 264 280.4 253.3 280.4 240C280.4 226.7 291.1 216 304.4 216C317.6 216 328.4 226.7 328.4 240zM158.7 374.1C175.1 388.7 196.8 400 224 400C251.2 400 272.9 388.7 289.3 374.1C306 359.2 316.6 341.3 321.1 330.1C324.4 321.9 333.7 317.9 341.9 321.1C350.1 324.4 354.1 333.7 350.9 341.9C344.7 357.4 331.3 379.5 310.7 397.9C289.8 416.6 260.8 432 223.1 432C187.2 432 158.2 416.6 137.3 397.9C116.7 379.5 103.3 357.4 97.14 341.9C93.86 333.7 97.85 324.4 106.1 321.1C114.3 317.9 123.6 321.9 126.9 330.1C131.4 341.3 141.1 359.2 158.7 374.1H158.7zM448 288C448 411.7 347.7 512 224 512C100.3 512 0 411.7 0 288C0 164.3 100.3 64 224 64C347.7 64 448 164.3 448 288zM224 96C117.1 96 32 181.1 32 288C32 394 117.1 480 224 480C330 480 416 394 416 288C416 181.1 330 96 224 96z"/></svg>
